libs/ui/packages/crypto-icons/src/svg/ATM.svg

<svg width="24" height="24" viewBox="0 0 24 24" fill="none">
<path fill-rule="evenodd" clip-rule="evenodd" d="M15.1927 14.2064L15.9097 15.5542C16.3175 16.3214 16.4039 17.2192 16.1499 18.0502C15.8959 18.8811 15.3223 19.5771 14.5552 19.9852L14.4622 20.0347C14.0822 20.2368 13.6662 20.362 13.2379 20.4033C12.8096 20.4446 12.3773 20.4011 11.9658 20.2753C11.5542 20.1495 11.1715 19.9439 10.8394 19.6702C10.5074 19.3966 10.2325 19.0601 10.0304 18.6802L7.61317 14.1337C7.22016 13.3946 7.1249 12.5332 7.34693 11.7261C7.56896 10.919 8.09144 10.2275 8.80717 9.79345L8.09017 8.4457C7.68238 7.67838 7.59607 6.7805 7.85022 5.94955C8.10437 5.1186 8.67817 4.42262 9.44542 4.0147L9.53842 3.9652C10.3057 3.55735 11.2035 3.47092 12.0344 3.72493C12.8653 3.97894 13.5614 4.55258 13.9694 5.3197L16.3867 9.8662C16.7797 10.6052 16.8751 11.4666 16.6532 12.2736C16.4314 13.0807 15.909 13.7723 15.1934 14.2064H15.1927ZM15.1927 14.2064L13.4924 11.0077C13.0844 10.2406 12.3883 9.66694 11.5574 9.41293C10.7265 9.15892 9.82865 9.24535 9.06142 9.6532L8.96842 9.70195C8.91367 9.73195 8.85967 9.76195 8.80717 9.79345L10.5082 12.9922C10.9162 13.7593 11.6123 14.333 12.4432 14.587C13.2741 14.841 14.1719 14.7545 14.9392 14.3467L15.0322 14.2979C15.0869 14.2679 15.1409 14.2379 15.1934 14.2064H15.1927Z" fill="#346FCE"/>
</svg>

<svg width="24" height="24" viewBox="0 0 24 24" fill="none"><path fill="#346fce" fill-rule="evenodd" d="m15.193 14.206.717 1.348a3.277 3.277 0 0 1-1.355 4.431l-.093.05a3.277 3.277 0 0 1-4.432-1.355l-2.417-4.546a3.277 3.277 0 0 1 1.194-4.34L8.09 8.445a3.277 3.277 0 0 1 1.355-4.431l.093-.05A3.277 3.277 0 0 1 13.97 5.32l2.418 4.546a3.277 3.277 0 0 1-1.194 4.34m0 0-1.7-3.198A3.277 3.277 0 0 0 9.06 9.653l-.093.049q-.082.045-.16.091l1.7 3.2a3.277 3.277 0 0 0 4.431 1.354l.093-.05z" clip-rule="evenodd"/></svg>
